assets/images/results/3.svg

<svg width="705" height="30" viewBox="0 0 705 30" fill="none" xmlns="http://www.w3.org/2000/svg">
<g opacity="0.1">
<rect width="25" height="30" rx="4" fill="white"/>
</g>
<rect x="29" width="24" height="30" rx="4" fill="#7D9D3B"/>
<path d="M37.574 20C37.574 19.4307 37.6113 18.9313 37.686 18.502C37.7607 18.0633 37.8773 17.676 38.036 17.34C38.204 16.9947 38.4187 16.6913 38.68 16.43C38.9413 16.1687 39.2633 15.9213 39.646 15.688C39.9727 15.5013 40.3087 15.3193 40.654 15.142C41.0087 14.9647 41.3353 14.778 41.634 14.582C41.942 14.386 42.1893 14.162 42.376 13.91C42.572 13.658 42.67 13.35 42.67 12.986C42.67 12.706 42.6093 12.468 42.488 12.272C42.376 12.0667 42.208 11.908 41.984 11.796C41.7693 11.684 41.508 11.628 41.2 11.628C40.8453 11.628 40.514 11.6933 40.206 11.824C39.9073 11.9453 39.6367 12.0993 39.394 12.286C39.1607 12.4633 38.96 12.6407 38.792 12.818L37.616 11.586C37.7467 11.4367 37.924 11.2687 38.148 11.082C38.3813 10.8953 38.6567 10.7133 38.974 10.536C39.3007 10.3587 39.6693 10.214 40.08 10.102C40.4907 9.99 40.9433 9.934 41.438 9.934C42.166 9.934 42.7773 10.0647 43.272 10.326C43.7667 10.578 44.14 10.928 44.392 11.376C44.6533 11.8147 44.784 12.3233 44.784 12.902C44.784 13.322 44.714 13.6953 44.574 14.022C44.4433 14.3393 44.2613 14.6193 44.028 14.862C43.7947 15.1047 43.5333 15.324 43.244 15.52C42.9547 15.7067 42.656 15.8887 42.348 16.066C41.8627 16.3273 41.4707 16.556 41.172 16.752C40.8733 16.948 40.6353 17.13 40.458 17.298C40.29 17.466 40.1593 17.634 40.066 17.802C39.982 17.9607 39.9073 18.1287 39.842 18.306H44.798V20H37.574Z" fill="white"/>
<path d="M57 4C57 1.79086 58.7909 0 61 0H76.2692C78.4784 0 80.2692 1.79086 80.2692 4V26C80.2692 28.2091 78.4784 30 76.2692 30H61C58.7909 30 57 28.2091 57 26V4Z" fill="white" fill-opacity="0.1"/>
<path d="M57 4C57 1.79086 58.7909 0 61 0H76.2692C78.4784 0 80.2692 1.79086 80.2692 4V26C80.2692 28.2091 78.4784 30 76.2692 30H61C58.7909 30 57 28.2091 57 26V4Z" fill="url(#paint0_linear_13_186)"/>
<path d="M84.2693 4C84.2693 1.79086 86.0601 0 88.2693 0H103.539C105.748 0 107.539 1.79086 107.539 4V26C107.539 28.2091 105.748 30 103.539 30H88.2693C86.0602 30 84.2693 28.2091 84.2693 26V4Z" fill="white" fill-opacity="0.1"/>
<path d="M84.2693 4C84.2693 1.79086 86.0601 0 88.2693 0H103.539C105.748 0 107.539 1.79086 107.539 4V26C107.539 28.2091 105.748 30 103.539 30H88.2693C86.0602 30 84.2693 28.2091 84.2693 26V4Z" fill="url(#paint1_linear_13_186)"/>
<path d="M111.539 4C111.539 1.79086 113.329 0 115.539 0H130.808C133.017 0 134.808 1.79086 134.808 4V26C134.808 28.2091 133.017 30 130.808 30H115.539C113.329 30 111.539 28.2091 111.539 26V4Z" fill="white" fill-opacity="0.1"/>
<path d="M111.539 4C111.539 1.79086 113.329 0 115.539 0H130.808C133.017 0 134.808 1.79086 134.808 4V26C134.808 28.2091 133.017 30 130.808 30H115.539C113.329 30 111.539 28.2091 111.539 26V4Z" fill="url(#paint2_linear_13_186)"/>
<rect x="138.808" width="25" height="30" rx="4" fill="#38BCE2"/>
<path d="M150.36 18.306V20H144.732V18.306H146.664V11.838C146.589 11.95 146.463 12.076 146.286 12.216C146.118 12.3467 145.922 12.4773 145.698 12.608C145.483 12.7293 145.259 12.832 145.026 12.916C144.802 13 144.596 13.042 144.41 13.042V11.306C144.662 11.306 144.918 11.2407 145.18 11.11C145.441 10.9793 145.684 10.83 145.908 10.662C146.132 10.494 146.309 10.34 146.44 10.2C146.58 10.0507 146.654 9.97133 146.664 9.962H148.582V18.306H150.36ZM155.571 20.14C154.871 20.1307 154.25 19.972 153.709 19.664C153.168 19.356 152.715 18.95 152.351 18.446C151.987 17.942 151.712 17.4007 151.525 16.822C151.348 16.234 151.259 15.66 151.259 15.1C151.259 14.5027 151.357 13.9053 151.553 13.308C151.749 12.7107 152.034 12.1693 152.407 11.684C152.79 11.1893 153.247 10.7973 153.779 10.508C154.311 10.2093 154.908 10.06 155.571 10.06C156.29 10.06 156.915 10.2187 157.447 10.536C157.988 10.8533 158.441 11.264 158.805 11.768C159.169 12.272 159.44 12.818 159.617 13.406C159.804 13.994 159.897 14.5587 159.897 15.1C159.897 15.7067 159.799 16.3087 159.603 16.906C159.407 17.494 159.118 18.0307 158.735 18.516C158.362 19.0013 157.909 19.3933 157.377 19.692C156.845 19.9813 156.243 20.1307 155.571 20.14ZM153.205 15.1C153.214 15.492 153.266 15.884 153.359 16.276C153.462 16.6587 153.606 17.0133 153.793 17.34C153.989 17.6667 154.236 17.9327 154.535 18.138C154.834 18.334 155.179 18.432 155.571 18.432C155.991 18.432 156.35 18.3247 156.649 18.11C156.948 17.8953 157.19 17.62 157.377 17.284C157.573 16.948 157.718 16.5887 157.811 16.206C157.904 15.8233 157.951 15.4547 157.951 15.1C157.951 14.708 157.9 14.3207 157.797 13.938C157.704 13.546 157.554 13.1867 157.349 12.86C157.153 12.5333 156.906 12.272 156.607 12.076C156.318 11.8707 155.972 11.768 155.571 11.768C155.16 11.768 154.806 11.8753 154.507 12.09C154.208 12.3047 153.961 12.58 153.765 12.916C153.578 13.252 153.438 13.6113 153.345 13.994C153.252 14.3767 153.205 14.7453 153.205 15.1Z" fill="white"/>
<g opacity="0.1">
<rect x="167.808" width="24" height="30" rx="4" fill="white"/>
</g>
<g opacity="0.1">
<rect x="195.808" width="25" height="30" rx="4" fill="white"/>
</g>
<g opacity="0.1">
<rect x="224.808" width="24" height="30" rx="4" fill="white"/>
</g>
<g opacity="0.1">
<rect x="252.808" width="25" height="30" rx="4" fill="white"/>
</g>
<g opacity="0.1">
<rect x="281.808" width="24" height="30" rx="4" fill="white"/>
</g>
<g opacity="0.1">
<rect x="309.808" width="25" height="30" rx="4" fill="white"/>
</g>
<g opacity="0.1">
<rect x="338.808" width="24" height="30" rx="4" fill="white"/>
</g>
<g opacity="0.1">
<rect x="366.808" width="25" height="30" rx="4" fill="white"/>
</g>
<g opacity="0.1">
<rect x="395.808" width="24" height="30" rx="4" fill="white"/>
</g>
<g opacity="0.1">
<rect x="423.808" width="25" height="30" rx="4" fill="white"/>
</g>
<g opacity="0.1">
<rect x="452.808" width="24" height="30" rx="4" fill="white"/>
</g>
<g opacity="0.1">
<rect x="480.808" width="25" height="30" rx="4" fill="white"/>
</g>
<g opacity="0.1">
<rect x="509.808" width="24" height="30" rx="4" fill="white"/>
</g>
<g opacity="0.1">
<rect x="537.808" width="25" height="30" rx="4" fill="white"/>
</g>
<g opacity="0.1">
<rect x="566.808" width="24" height="30" rx="4" fill="white"/>
</g>
<g opacity="0.1">
<rect x="594.808" width="25" height="30" rx="4" fill="white"/>
</g>
<g opacity="0.1">
<rect x="623.808" width="24" height="30" rx="4" fill="white"/>
</g>
<g opacity="0.1">
<rect x="651.808" width="25" height="30" rx="4" fill="white"/>
</g>
<g opacity="0.1">
<rect x="680.808" width="24" height="30" rx="4" fill="white"/>
</g>
<defs>
<linearGradient id="paint0_linear_13_186" x1="57" y1="15" x2="134.808" y2="15" gradientUnits="userSpaceOnUse">
<stop stop-color="#7D9D3B"/>
<stop offset="1" stop-color="#38BCE2"/>
</linearGradient>
<linearGradient id="paint1_linear_13_186" x1="57" y1="15" x2="134.808" y2="15" gradientUnits="userSpaceOnUse">
<stop stop-color="#7D9D3B"/>
<stop offset="1" stop-color="#38BCE2"/>
</linearGradient>
<linearGradient id="paint2_linear_13_186" x1="57" y1="15" x2="134.808" y2="15" gradientUnits="userSpaceOnUse">
<stop stop-color="#7D9D3B"/>
<stop offset="1" stop-color="#38BCE2"/>
</linearGradient>
</defs>
</svg>

<svg xmlns="http://www.w3.org/2000/svg" width="705" height="30" fill="none" viewBox="0 0 705 30"><rect width="25" height="30" fill="#fff" opacity="0.1" rx="4"/><rect width="24" height="30" x="29" fill="#7D9D3B" rx="4"/><path fill="#fff" d="M37.574 20q0-.855.112-1.498.112-.658.35-1.162.252-.518.644-.91a5.2 5.2 0 0 1 .966-.742q.49-.28 1.008-.546.532-.266.98-.56.462-.294.742-.672.294-.378.294-.924 0-.42-.182-.714a1.13 1.13 0 0 0-.504-.476 1.7 1.7 0 0 0-.784-.168q-.532 0-.994.196-.449.181-.812.462a5 5 0 0 0-.602.532l-1.176-1.232q.195-.224.532-.504a6 6 0 0 1 .826-.546 5.2 5.2 0 0 1 1.106-.434q.615-.168 1.358-.168 1.093 0 1.834.392a2.6 2.6 0 0 1 1.12 1.05q.392.658.392 1.526 0 .63-.21 1.12-.196.476-.546.84a5 5 0 0 1-.784.658q-.434.28-.896.546-.728.392-1.176.686a5 5 0 0 0-.714.546 2.3 2.3 0 0 0-.392.504 4 4 0 0 0-.224.504h4.956V20z"/><path fill="#fff" fill-opacity="0.1" d="M57 4a4 4 0 0 1 4-4h15.27a4 4 0 0 1 4 4v22a4 4 0 0 1-4 4H61a4 4 0 0 1-4-4z"/><path fill="url(#a)" d="M57 4a4 4 0 0 1 4-4h15.27a4 4 0 0 1 4 4v22a4 4 0 0 1-4 4H61a4 4 0 0 1-4-4z"/><path fill="#fff" fill-opacity="0.1" d="M84.27 4a4 4 0 0 1 4-4h15.269a4 4 0 0 1 4 4v22a4 4 0 0 1-4 4h-15.27a4 4 0 0 1-4-4z"/><path fill="url(#b)" d="M84.27 4a4 4 0 0 1 4-4h15.269a4 4 0 0 1 4 4v22a4 4 0 0 1-4 4h-15.27a4 4 0 0 1-4-4z"/><path fill="#fff" fill-opacity="0.1" d="M111.539 4a4 4 0 0 1 4-4h15.269a4 4 0 0 1 4 4v22a4 4 0 0 1-4 4h-15.269a4 4 0 0 1-4-4z"/><path fill="url(#c)" d="M111.539 4a4 4 0 0 1 4-4h15.269a4 4 0 0 1 4 4v22a4 4 0 0 1-4 4h-15.269a4 4 0 0 1-4-4z"/><rect width="25" height="30" x="138.808" fill="#38BCE2" rx="4"/><path fill="#fff" d="M150.36 18.306V20h-5.628v-1.694h1.932v-6.468a1.8 1.8 0 0 1-.378.378q-.252.195-.588.392a4.4 4.4 0 0 1-.672.308q-.337.126-.616.126v-1.736q.378 0 .77-.196a4.8 4.8 0 0 0 1.26-.91q.21-.225.224-.238h1.918v8.344zm5.211 1.834q-1.05-.014-1.862-.476a4.25 4.25 0 0 1-1.358-1.218 5.8 5.8 0 0 1-.826-1.624 6 6 0 0 1-.266-1.722q0-.896.294-1.792a5.4 5.4 0 0 1 .854-1.624 4.35 4.35 0 0 1 1.372-1.176 3.6 3.6 0 0 1 1.792-.448q1.078 0 1.876.476.812.476 1.358 1.232t.812 1.638q.28.882.28 1.694a5.8 5.8 0 0 1-.294 1.806 5.3 5.3 0 0 1-.868 1.61 4.4 4.4 0 0 1-1.358 1.176q-.798.435-1.806.448m-2.366-5.04q.014.588.154 1.176.154.574.434 1.064.294.49.742.798.448.294 1.036.294.63 0 1.078-.322t.728-.826q.294-.504.434-1.078t.14-1.106q0-.588-.154-1.162a3.6 3.6 0 0 0-.448-1.078 2.4 2.4 0 0 0-.742-.784q-.434-.308-1.036-.308-.616 0-1.064.322t-.742.826a4.3 4.3 0 0 0-.42 1.078q-.14.574-.14 1.106"/><rect width="24" height="30" x="167.808" fill="#fff" opacity="0.1" rx="4"/><rect width="25" height="30" x="195.808" fill="#fff" opacity="0.1" rx="4"/><rect width="24" height="30" x="224.808" fill="#fff" opacity="0.1" rx="4"/><rect width="25" height="30" x="252.808" fill="#fff" opacity="0.1" rx="4"/><rect width="24" height="30" x="281.808" fill="#fff" opacity="0.1" rx="4"/><rect width="25" height="30" x="309.808" fill="#fff" opacity="0.1" rx="4"/><rect width="24" height="30" x="338.808" fill="#fff" opacity="0.1" rx="4"/><rect width="25" height="30" x="366.808" fill="#fff" opacity="0.1" rx="4"/><rect width="24" height="30" x="395.808" fill="#fff" opacity="0.1" rx="4"/><rect width="25" height="30" x="423.808" fill="#fff" opacity="0.1" rx="4"/><rect width="24" height="30" x="452.808" fill="#fff" opacity="0.1" rx="4"/><rect width="25" height="30" x="480.808" fill="#fff" opacity="0.1" rx="4"/><rect width="24" height="30" x="509.808" fill="#fff" opacity="0.1" rx="4"/><rect width="25" height="30" x="537.808" fill="#fff" opacity="0.1" rx="4"/><rect width="24" height="30" x="566.808" fill="#fff" opacity="0.1" rx="4"/><rect width="25" height="30" x="594.808" fill="#fff" opacity="0.1" rx="4"/><rect width="24" height="30" x="623.808" fill="#fff" opacity="0.1" rx="4"/><rect width="25" height="30" x="651.808" fill="#fff" opacity="0.1" rx="4"/><rect width="24" height="30" x="680.808" fill="#fff" opacity="0.1" rx="4"/><defs><linearGradient id="a" x1="57" x2="134.808" y1="15" y2="15" gradientUnits="userSpaceOnUse"><stop stop-color="#7D9D3B"/><stop offset="1" stop-color="#38BCE2"/></linearGradient><linearGradient id="b" x1="57" x2="134.808" y1="15" y2="15" gradientUnits="userSpaceOnUse"><stop stop-color="#7D9D3B"/><stop offset="1" stop-color="#38BCE2"/></linearGradient><linearGradient id="c" x1="57" x2="134.808" y1="15" y2="15" gradientUnits="userSpaceOnUse"><stop stop-color="#7D9D3B"/><stop offset="1" stop-color="#38BCE2"/></linearGradient></defs></svg>
